assets/images/icons/pages.svg

<svg viewBox="0 0 29 36" fill="none" xmlns="http://www.w3.org/2000/svg">
<path d="M6.43267 6.49034C6.01846 6.49034 5.68267 6.82612 5.68267 7.24034C5.68267 7.65455 6.01846 7.99034 6.43267 7.99034H14.0106C14.4249 7.99034 14.7606 7.65455 14.7606 7.24034C14.7606 6.82612 14.4249 6.49034 14.0106 6.49034H6.43267Z" fill="#444444"/>
<path d="M6.43267 12.1738C6.01846 12.1738 5.68267 12.5096 5.68267 12.9238C5.68267 13.338 6.01846 13.6738 6.43267 13.6738H14.0106C14.4249 13.6738 14.7606 13.338 14.7606 12.9238C14.7606 12.5096 14.4249 12.1738 14.0106 12.1738H6.43267Z" fill="#444444"/>
<path d="M6.43267 17.8573C6.01846 17.8573 5.68267 18.1931 5.68267 18.6073C5.68267 19.0215 6.01846 19.3573 6.43267 19.3573H21.5886C22.0028 19.3573 22.3386 19.0215 22.3386 18.6073C22.3386 18.1931 22.0028 17.8573 21.5886 17.8573H6.43267Z" fill="#444444"/>
<path d="M6.43267 23.5408C6.01846 23.5408 5.68267 23.8766 5.68267 24.2908C5.68267 24.705 6.01846 25.0408 6.43267 25.0408H21.5886C22.0028 25.0408 22.3386 24.705 22.3386 24.2908C22.3386 23.8766 22.0028 23.5408 21.5886 23.5408H6.43267Z" fill="#444444"/>
<path d="M6.43267 29.2243C6.01846 29.2243 5.68267 29.5601 5.68267 29.9743C5.68267 30.3885 6.01846 30.7243 6.43267 30.7243H21.5886C22.0028 30.7243 22.3386 30.3885 22.3386 29.9743C22.3386 29.5601 22.0028 29.2243 21.5886 29.2243H6.43267Z" fill="#444444"/>
<path fill-rule="evenodd" clip-rule="evenodd" d="M2.6445 0.806702C1.18399 0.806702 0 1.99068 0 3.4512V33.1648C0 34.6254 1.18398 35.8093 2.64449 35.8093H25.3784C26.8389 35.8093 28.0229 34.6254 28.0229 33.1648V9.01174C28.0229 8.81282 27.9439 8.62206 27.8032 8.48141L20.3482 1.02637C20.2076 0.885719 20.0168 0.806702 19.8179 0.806702H2.6445ZM20.5651 3.36457L25.6849 8.48439H20.5572L20.5651 3.36457ZM1.5 3.4512C1.5 2.81911 2.01241 2.3067 2.6445 2.3067H19.0667L19.056 9.23323C19.0557 9.43234 19.1346 9.62341 19.2753 9.76431C19.416 9.90521 19.6069 9.98439 19.806 9.98439H26.5229V33.1648C26.5229 33.7969 26.0105 34.3093 25.3784 34.3093H2.64449C2.01241 34.3093 1.5 33.7969 1.5 33.1648V3.4512Z" fill="#444444"/>
</svg>

<svg viewBox="0 0 29 36" fill="none" xmlns="http://www.w3.org/2000/svg"><path d="M6.433 6.49a.75.75 0 1 0 0 1.5h7.578a.75.75 0 1 0 0-1.5H6.433zm0 5.684a.75.75 0 0 0 0 1.5h7.578a.75.75 0 1 0 0-1.5H6.433zm0 5.683a.75.75 0 0 0 0 1.5h15.156a.75.75 0 0 0 0-1.5H6.433zm0 5.684a.75.75 0 0 0 0 1.5h15.156a.75.75 0 0 0 0-1.5H6.433zm0 5.683a.75.75 0 0 0 0 1.5h15.156a.75.75 0 0 0 0-1.5H6.433z" fill="#444"/><path fill-rule="evenodd" clip-rule="evenodd" d="M2.644.807A2.645 2.645 0 0 0 0 3.45v29.714a2.644 2.644 0 0 0 2.644 2.644h22.734a2.644 2.644 0 0 0 2.645-2.644V9.012a.75.75 0 0 0-.22-.53l-7.455-7.456a.75.75 0 0 0-.53-.22H2.644zm17.921 2.558l5.12 5.12h-5.128l.008-5.12zM1.5 3.45c0-.632.512-1.144 1.144-1.144h16.423l-.011 6.926a.75.75 0 0 0 .75.751h6.717v23.18c0 .633-.512 1.145-1.145 1.145H2.644A1.144 1.144 0 0 1 1.5 33.165V3.45z" fill="#444"/></svg>
